X:1
T:The Old Orange Flute
M:6/8
L:1/8
K:G
 z4 z G/2G/2| GBd dcB| AGA BGG| GBd ggg| fde fdd| g3/2 g/2 g gdB| cde d2 c|\
 BBB dcB| AGG G2 z|
